32x32/apps/pumpa.svg

<svg xmlns="http://www.w3.org/2000/svg" width="32" height="32" version="1">
 <path fill-rule="evenodd" opacity=".2" d="m18.879 3.968c-0.213-0.0077-0.436-0.0007-0.666 0.0253-0.22 0.0249-0.348 0.1123-0.547 0.4278s-0.375 0.8313-0.482 1.3691c-0.215 1.0756-0.184 2.1758-0.184 2.1758a1.0006 1.0006 0 0 1 -1.986 0.1992c-0.025 0.5182-0.014 0.8672-0.014 0.8672a1.0006 1.0006 0 1 0 2 -0.066406s-0.0307-1.1002 0.18359-2.1758c0.10714-0.53778 0.28373-1.0536 0.48242-1.3691 0.19869-0.31551 0.32699-0.40284 0.54688-0.42773 1.8411-0.20846 3.1797 0.80078 3.1797 0.80078a1.0004 1.0004 0 0 0 1.4727 -1.2949 1.0004 1.0004 0 0 1 -1.4727 0.29492s-1.024-0.77265-2.5137-0.82617z"/>
 <path fill="#f58411" d="m12.5 6 3.5 2 3.5-2c5.817 0 10.5 4.7224 10.5 10.588v2.8235c0 5.8659-4.683 10.588-10.5 10.588l-3.5-1-3.5 1c-5.817 0-10.5-4.722-10.5-10.588v-2.824c0-5.866 4.683-10.588 10.5-10.588z"/>
 <path fill="#fff" opacity=".2" d="m12.5 6c-5.817 0-10.5 4.722-10.5 10.588v1c0-5.866 4.683-10.588 10.5-10.588l3.5 2 3.5-2c5.817 0 10.5 4.722 10.5 10.588v-1c0-5.866-4.683-10.588-10.5-10.588l-3.5 2-3.5-2z"/>
 <path fill="none" stroke="#4a2507" stroke-linecap="round" stroke-linejoin="round" stroke-width="2" d="m16 8s-0.159-4.7443 2.1-5 3.9 1 3.9 1"/>
 <path opacity=".2" d="m2 19.412v1c0 5.866 4.683 10.588 10.5 10.588l3.5-1 3.5 1c5.817 0 10.5-4.722 10.5-10.588v-1c0 5.866-4.683 10.588-10.5 10.588l-3.5-1-3.5 1c-5.817 0-10.5-4.722-10.5-10.588z"/>
 <path fill="#fff" fill-rule="evenodd" opacity=".2" d="m18.955 1.9707c-0.309-0.0121-0.632-0.0027-0.967 0.0352-0.909 0.1029-1.609 0.7036-2.015 1.3496-0.407 0.6459-0.615 1.3646-0.75 2.0449-0.271 1.3605-0.223 2.6328-0.223 2.6328a1.0006 1.0006 0 0 0 0.014 0.1328c0.023-0.4822 0.078-1.1098 0.209-1.7656 0.135-0.6803 0.343-1.399 0.75-2.0449 0.406-0.646 1.106-1.2467 2.015-1.3496 2.676-0.303 4.619 1.1992 4.619 1.1992a1.0004 1.0004 0 0 1 0.26 0.2969 1.0004 1.0004 0 0 0 -0.26 -1.2969s-1.487-1.1498-3.652-1.2344z"/>
</svg>

<svg xmlns="http://www.w3.org/2000/svg" width="32" height="32" version="1"><path fill-rule="evenodd" opacity=".2" d="M18.879 3.968c-.213-.008-.436 0-.666.025-.22.025-.348.113-.547.428s-.375.831-.482 1.37C16.969 6.865 17 7.965 17 7.965a1 1 0 0 1-1.986.2c-.025.517-.014.866-.014.866a1 1 0 1 0 2-.066s-.03-1.1.184-2.176c.107-.538.283-1.053.482-1.369.199-.315.327-.403.547-.428 1.841-.208 3.18.801 3.18.801A1 1 0 0 0 22.865 4.5a1 1 0 0 1-1.472.295s-1.024-.772-2.514-.826z"/><path fill="#f58411" d="M12.5 6 16 8l3.5-2C25.317 6 30 10.722 30 16.588v2.824C30 25.276 25.317 30 19.5 30L16 29l-3.5 1C6.683 30 2 25.276 2 19.41v-2.824C2 10.721 6.683 6 12.5 6z"/><path fill="#fff" opacity=".2" d="M12.5 6C6.683 6 2 10.722 2 16.588v1C2 11.722 6.683 7 12.5 7L16 9l3.5-2C25.317 7 30 11.722 30 17.588v-1C30 10.722 25.317 6 19.5 6L16 8l-3.5-2z"/><path fill="none" stroke="#4a2507" stroke-linecap="round" stroke-linejoin="round" stroke-width="2" d="M16 8s-.159-4.744 2.1-5S22 4 22 4"/><path opacity=".2" d="M2 19.412v1C2 26.278 6.683 31 12.5 31l3.5-1 3.5 1C25.317 31 30 26.278 30 20.412v-1C30 25.278 25.317 30 19.5 30L16 29l-3.5 1C6.683 30 2 25.278 2 19.412z"/><path fill="#fff" fill-rule="evenodd" opacity=".2" d="M18.955 1.97a6.373 6.373 0 0 0-.967.036c-.909.103-1.609.704-2.015 1.35-.407.645-.615 1.364-.75 2.044C14.952 6.76 15 8.033 15 8.033a1 1 0 0 0 .014.133c.023-.482.078-1.11.209-1.766.135-.68.343-1.399.75-2.045.406-.646 1.106-1.246 2.015-1.35 2.676-.302 4.619 1.2 4.619 1.2a1 1 0 0 1 .26.297 1 1 0 0 0-.26-1.297s-1.487-1.15-3.652-1.234z"/></svg>
